app/dist/common/images/glacier-bancorp.svg

<svg height="18" width="18" xmlns="http://www.w3.org/2000/svg"><path d="m0 0h18v18h-18z" fill="#f0f3fa"/><path d="m8.666 4.003-3.666 3.101v2.423l3.666-2.994zm-.331 3.374-3.335 2.683v2.423l3.335-2.488zm-.335 3.623-2.98 2h2.98z" fill="#147cc2"/><path d="m9.333 4 3.667 3.103v2.423l-3.667-2.994zm.334 3.375 3.333 2.685v2.423l-3.333-2.483zm.333 3.625 2.98 1.999h-2.98z" fill="#6cb35f"/></svg>

<!-- by TradingView --><svg width="18" height="18" xmlns="http://www.w3.org/2000/svg"><path fill="#F0F3FA" d="M0 0h18v18H0z"/><path d="M8.666 4.003L5 7.104v2.423l3.666-2.994v-2.53zm-.331 3.374L5 10.06v2.423l3.335-2.488V7.377zM8 11l-2.98 2H8v-2z" fill="#147CC2"/><path d="M9.333 4L13 7.103v2.423L9.333 6.532V4zm.334 3.375L13 10.06v2.423L9.667 10V7.375zM10 11l2.98 1.999H10V11z" fill="#6CB35F"/></svg>
